X: 6
T: Kitty's Rambles
R: jig
M: 6/8
L: 1/8
K: Dmix
FDD cAA|d^cd efg|fed cAG|EAG EFG|FDD cAA|d^cd efg|fed cAG|1 Ad^c dAG:|2 Ad^c d2A|||:dfa dfa|dfa afd|ceg ceg|ceg gag|fed efg|~a3 g2e|fed cAG|1 Ad^c d2A:|2 Ad^c de/f/g|||:afd d^cd|Adf aba|gec cBc|Ace gag|fed efg|~a3 g2e|fed cAG|1 Ad^c de/f/g:|2 Ad^c dAG||


Tune 1843	Setting 15276

